X:1
T:Title
%%score { ( 1 3 ) | ( 2 4 5 ) }
L:1/8
M:6/8
K:Ab
V:1 treble nm="Grand Piano"
V:3 treble 
V:2 bass 
V:4 bass 
V:5 bass 
V:1
 z3 z[Q:1/4=81] EE | [Ec]<[Ec][Ec] BB>G | [CA][EG][DF] [CE]2 [CE] | [CA]>[CA][CA] [=DF][DG][DA] | %4
 B3- B2 E | cc>c BB>B | AA[=EG] F2 F | Ec>E EB>E |[M:5/8] [CA]-[CA]- [CA]3 |[M:1/8] [CE]/[CE]/ | %10
[M:3/4] G<.G z B/B/ z2 | [CA]<[CA] [DB] [Ec]2 [Ec]/[Ec]/ | [=Dc]<[DB] [DA][DF] [DG][DA] | B4- BE | %14
 c<c c B2 B/B/ | AA [=EG] F2 F/F/ |[M:15/16] z/ c-c3/2 z/ E z3 |[M:5/8] [CA]-[CA]- [CA]3 |] %18
V:2
 z3 z E,E, | [A,,A,]<[A,,A,][A,,A,] [E,G,D][E,G,D]>[E,B,D] | %2
 [A,,A,][A,,A,][A,,A,] [A,,A,]2 [A,,A,] | [A,,A,]>[A,,A,][A,,A,] [B,,A,][B,,G,][B,,F,] | %4
 [E,G,D]3- [E,G,D]2 [E,G,D] | [A,E][A,E]>[A,E] [G,C=E][G,CE]>[G,CE] | %6
 [F,CF][F,CF][C,B,] [D,A,D]2 [=D,A,_C] | [E,A,C][E,A,E]>[E,A,C] [E,G,D][E,G,D]>[E,G,D] | %8
[M:5/8] [A,,A,]-[A,,A,]- [A,,A,]3 |[M:1/8] [A,,A,]/[A,,A,]/ | %10
[M:3/4] [E,B,D]<.[E,B,D] z [E,G,D]/[E,G,D]/ z2 | %11
 [A,,A,]<[A,,A,] [A,,A,] [A,,A,]2 [A,,A,]/[A,,A,]/ | %12
 [B,,F,]<[B,,F,] [B,,F,][B,,A,] [B,,G,][B,,F,] | [E,G,D]4- [E,G,D][E,G,D] | %14
 [A,E]<[A,E] [A,E] [G,C=E]2 [G,CE]/[G,CE]/ | [F,CF][F,CF] [C,B,] [D,A,D]2 [=D,A,_C]/[D,A,C]/ | %16
[M:15/16] z/ E-E3/2 z3/2 z3 |[M:5/8] [A,,A,]-[A,,A,]- [A,,A,]3 |] %18
V:3
 x6 | x6 | x6 | x6 | x6 | x6 | x6 | x6 |[M:5/8] x5 |[M:1/8] x |[M:3/4] x6 | x6 | x6 | x6 | x6 | %15
 x6 |[M:15/16] .E3/2 z E/-E/ z/ B-<B-B/E |[M:5/8] x5 |] %18
V:4
 x6 | x6 | x6 | x6 | x6 | x6 | x6 | x6 |[M:5/8] x5 |[M:1/8] x |[M:3/4] x6 | x6 | x6 | x6 | x6 | %15
 x6 |[M:15/16] [E,A,C]/[E,A,]-[E,A,][A,C]/-[A,C]/-[E,G,A,CD]/[E,G,D]-<[E,G,D]-[E,G,D]/[E,G,D] | %17
[M:5/8] x5 |] %18
V:5
 x6 | x6 | x6 | x6 | x6 | x6 | x6 | x6 |[M:5/8] x5 |[M:1/8] x |[M:3/4] x6 | x6 | x6 | x6 | x6 | %15
 x6 |[M:15/16] z3/2 z E,/-E,/ z z3 |[M:5/8] x5 |] %18

